X: 111
T: Li hun
%%abc-version 2.0
%%abcx-abcm2ps-target-version 5.9.1 (29 Sep 2008)
%%abc-creator hum2abc beta
%%abcx-conversion-date 2013/10/02 07:52:29
%%abc-edited-by Helmut Schaffrath
%%humdrum-veritas 1850283308
%%humdrum-veritas-data 3539684880
%%continueall 1
%%barnumbers 0
L: 1/8
M: 2/4
K: G
d' bb2 [I:setbarnb 1]| 
d' bb2 | 
a bd'2 | 
d' c' b a | 
fa2b | 
d'> b b b | 
a g f e | 
d4 | 
d cd2 | 
fa2b | 
a a a f | 
a fa2 | 
fa2b | 
b d' b b | 
b f b a | 
f> ed2 |]  



